images/portfolio/logo_crm.svg

<svg version="1.1" xmlns="http://www.w3.org/2000/svg" xmlns:xlink="http://www.w3.org/1999/xlink" width="195" height="39" viewBox="0,0,256,51.1875"><g fill="#ffffff" fill-rule="nonzero" stroke="none" stroke-width="1" stroke-linecap="butt" stroke-linejoin="miter" stroke-miterlimit="10" stroke-dasharray="" stroke-dashoffset="0" font-family="none" font-weight="none" font-size="none" text-anchor="none" style="mix-blend-mode: normal"><g transform="translate(-0.88134,0.00174) scale(1.31282,1.31282)"><path d="M53.138,10.852c1.9067,0 3.5793,0.3727 5.018,1.118c1.456,0.7453 2.574,1.8113 3.354,3.198c0.7973,1.3693 1.196,2.964 1.196,4.784c0,1.82 -0.3987,3.4147 -1.196,4.784c-0.78,1.352 -1.898,2.4007 -3.354,3.146c-1.4387,0.7453 -3.1113,1.118 -5.018,1.118h-6.344v-18.148zM53.008,25.906c1.9067,0 3.38,-0.52 4.42,-1.56c1.04,-1.04 1.56,-2.5047 1.56,-4.394c0,-1.8893 -0.52,-3.3627 -1.56,-4.42c-1.04,-1.0747 -2.5133,-1.612 -4.42,-1.612h-2.574v11.986zM64.7547,21.746c0,-1.456 0.286,-2.7473 0.858,-3.874c0.5894,-1.1267 1.378,-1.9933 2.366,-2.6c1.0054,-0.6067 2.1234,-0.91 3.354,-0.91c1.0747,0 2.0107,0.2167 2.808,0.65c0.8147,0.4333 1.4647,0.9793 1.95,1.638v-2.054h3.666v14.404h-3.666v-2.106c-0.468,0.676 -1.118,1.2393 -1.95,1.69c-0.8146,0.4333 -1.7593,0.65 -2.834,0.65c-1.2133,0 -2.3226,-0.312 -3.328,-0.936c-0.988,-0.624 -1.7766,-1.4993 -2.366,-2.626c-0.572,-1.144 -0.858,-2.4527 -0.858,-3.926zM76.0907,21.798c0,-0.884 -0.1733,-1.638 -0.52,-2.262c-0.3466,-0.6413 -0.8146,-1.1267 -1.404,-1.456c-0.5893,-0.3467 -1.222,-0.52 -1.898,-0.52c-0.676,0 -1.3,0.1647 -1.872,0.494c-0.572,0.3293 -1.04,0.8147 -1.404,1.456c-0.3466,0.624 -0.52,1.3693 -0.52,2.236c0,0.8667 0.1734,1.6293 0.52,2.288c0.364,0.6413 0.832,1.1353 1.404,1.482c0.5894,0.3467 1.2134,0.52 1.872,0.52c0.676,0 1.3087,-0.1647 1.898,-0.494c0.5894,-0.3467 1.0574,-0.832 1.404,-1.456c0.3467,-0.6413 0.52,-1.404 0.52,-2.288zM89.0838,29.234c-1.1787,0 -2.236,-0.208 -3.172,-0.624c-0.936,-0.4333 -1.6813,-1.014 -2.236,-1.742c-0.5373,-0.728 -0.832,-1.534 -0.884,-2.418h3.666c0.0693,0.5547 0.338,1.014 0.806,1.378c0.4853,0.364 1.0833,0.546 1.794,0.546c0.6933,0 1.2307,-0.1387 1.612,-0.416c0.3987,-0.2773 0.598,-0.6327 0.598,-1.066c0,-0.468 -0.2427,-0.8147 -0.728,-1.04c-0.468,-0.2427 -1.222,-0.5027 -2.262,-0.78c-1.0747,-0.26 -1.9587,-0.5287 -2.652,-0.806c-0.676,-0.2773 -1.2653,-0.702 -1.768,-1.274c-0.4853,-0.572 -0.728,-1.3433 -0.728,-2.314c0,-0.7973 0.2253,-1.5253 0.676,-2.184c0.468,-0.6587 1.1267,-1.1787 1.976,-1.56c0.8667,-0.3813 1.8807,-0.572 3.042,-0.572c1.716,0 3.0853,0.4333 4.108,1.3c1.0227,0.8493 1.586,2.002 1.69,3.458h-3.484c-0.052,-0.572 -0.2947,-1.0227 -0.728,-1.352c-0.416,-0.3467 -0.9793,-0.52 -1.69,-0.52c-0.6587,0 -1.17,0.1213 -1.534,0.364c-0.3467,0.2427 -0.52,0.5807 -0.52,1.014c0,0.4853 0.2427,0.858 0.728,1.118c0.4853,0.2427 1.2393,0.494 2.262,0.754c1.04,0.26 1.898,0.5287 2.574,0.806c0.676,0.2773 1.2567,0.7107 1.742,1.3c0.5027,0.572 0.7627,1.3347 0.78,2.288c0,0.832 -0.234,1.5773 -0.702,2.236c-0.4507,0.6587 -1.1093,1.1787 -1.976,1.56c-0.8493,0.364 -1.846,0.546 -2.99,0.546zM106.112,14.388c1.092,0 2.062,0.2427 2.912,0.728c0.849,0.468 1.508,1.17 1.976,2.106c0.485,0.9187 0.728,2.028 0.728,3.328v8.45h-3.64v-7.956c0,-1.144 -0.286,-2.0193 -0.858,-2.626c-0.572,-0.624 -1.352,-0.936 -2.34,-0.936c-1.006,0 -1.803,0.312 -2.392,0.936c-0.572,0.6067 -0.858,1.482 -0.858,2.626v7.956h-3.6402v-19.24h3.6402v6.63c0.468,-0.624 1.092,-1.1093 1.872,-1.456c0.78,-0.364 1.646,-0.546 2.6,-0.546zM119.089,16.702c0.468,-0.6933 1.11,-1.2567 1.924,-1.69c0.832,-0.4333 1.777,-0.65 2.834,-0.65c1.231,0 2.34,0.3033 3.328,0.91c1.006,0.6067 1.794,1.4733 2.366,2.6c0.59,1.1093 0.884,2.4007 0.884,3.874c0,1.4733 -0.294,2.782 -0.884,3.926c-0.572,1.1267 -1.36,2.002 -2.366,2.626c-0.988,0.624 -2.097,0.936 -3.328,0.936c-1.074,0 -2.019,-0.208 -2.834,-0.624c-0.797,-0.4333 -1.438,-0.988 -1.924,-1.664v2.054h-3.64v-19.24h3.64zM126.707,21.746c0,-0.8667 -0.182,-1.612 -0.546,-2.236c-0.346,-0.6413 -0.814,-1.1267 -1.404,-1.456c-0.572,-0.3293 -1.196,-0.494 -1.872,-0.494c-0.658,0 -1.282,0.1733 -1.872,0.52c-0.572,0.3293 -1.04,0.8147 -1.404,1.456c-0.346,0.6413 -0.52,1.3953 -0.52,2.262c0,0.8667 0.174,1.6207 0.52,2.262c0.364,0.6413 0.832,1.1353 1.404,1.482c0.59,0.3293 1.214,0.494 1.872,0.494c0.676,0 1.3,-0.1733 1.872,-0.52c0.59,-0.3467 1.058,-0.8407 1.404,-1.482c0.364,-0.6413 0.546,-1.404 0.546,-2.288zM139.726,29.234c-1.386,0 -2.634,-0.3033 -3.744,-0.91c-1.109,-0.624 -1.984,-1.4993 -2.626,-2.626c-0.624,-1.1267 -0.936,-2.4267 -0.936,-3.9c0,-1.4733 0.321,-2.7733 0.962,-3.9c0.659,-1.1267 1.552,-1.9933 2.678,-2.6c1.127,-0.624 2.384,-0.936 3.77,-0.936c1.387,0 2.644,0.312 3.77,0.936c1.127,0.6067 2.011,1.4733 2.652,2.6c0.659,1.1267 0.988,2.4267 0.988,3.9c0,1.4733 -0.338,2.7733 -1.014,3.9c-0.658,1.1267 -1.56,2.002 -2.704,2.626c-1.126,0.6067 -2.392,0.91 -3.796,0.91zM139.726,26.062c0.659,0 1.274,-0.156 1.846,-0.468c0.59,-0.3293 1.058,-0.8147 1.404,-1.456c0.347,-0.6413 0.52,-1.4213 0.52,-2.34c0,-1.3693 -0.364,-2.418 -1.092,-3.146c-0.71,-0.7453 -1.586,-1.118 -2.626,-1.118c-1.04,0 -1.915,0.3727 -2.626,1.118c-0.693,0.728 -1.04,1.7767 -1.04,3.146c0,1.3693 0.338,2.4267 1.014,3.172c0.694,0.728 1.56,1.092 2.6,1.092zM149.234,21.746c0,-1.456 0.286,-2.7473 0.858,-3.874c0.59,-1.1267 1.378,-1.9933 2.366,-2.6c1.006,-0.6067 2.124,-0.91 3.354,-0.91c1.075,0 2.011,0.2167 2.808,0.65c0.815,0.4333 1.465,0.9793 1.95,1.638v-2.054h3.666v14.404h-3.666v-2.106c-0.468,0.676 -1.118,1.2393 -1.95,1.69c-0.814,0.4333 -1.759,0.65 -2.834,0.65c-1.213,0 -2.322,-0.312 -3.328,-0.936c-0.988,-0.624 -1.776,-1.4993 -2.366,-2.626c-0.572,-1.144 -0.858,-2.4527 -0.858,-3.926zM160.57,21.798c0,-0.884 -0.173,-1.638 -0.52,-2.262c-0.346,-0.6413 -0.814,-1.1267 -1.404,-1.456c-0.589,-0.3467 -1.222,-0.52 -1.898,-0.52c-0.676,0 -1.3,0.1647 -1.872,0.494c-0.572,0.3293 -1.04,0.8147 -1.404,1.456c-0.346,0.624 -0.52,1.3693 -0.52,2.236c0,0.8667 0.174,1.6293 0.52,2.288c0.364,0.6413 0.832,1.1353 1.404,1.482c0.59,0.3467 1.214,0.52 1.872,0.52c0.676,0 1.309,-0.1647 1.898,-0.494c0.59,-0.3467 1.058,-0.832 1.404,-1.456c0.347,-0.6413 0.52,-1.404 0.52,-2.288zM171.691,16.832c0.469,-0.7627 1.075,-1.3607 1.821,-1.794c0.762,-0.4333 1.629,-0.65 2.599,-0.65v3.822h-0.962c-1.143,0 -2.01,0.2687 -2.599,0.806c-0.573,0.5373 -0.859,1.4733 -0.859,2.808v7.176h-3.64v-14.404h3.64zM177.887,21.746c0,-1.456 0.286,-2.7473 0.858,-3.874c0.59,-1.1267 1.387,-1.9933 2.392,-2.6c1.006,-0.6067 2.124,-0.91 3.354,-0.91c0.936,0 1.829,0.208 2.678,0.624c0.85,0.3987 1.526,0.936 2.028,1.612v-6.838h3.692v19.24h-3.692v-2.132c-0.45,0.7107 -1.083,1.2827 -1.898,1.716c-0.814,0.4333 -1.759,0.65 -2.834,0.65c-1.213,0 -2.322,-0.312 -3.328,-0.936c-1.005,-0.624 -1.802,-1.4993 -2.392,-2.626c-0.572,-1.144 -0.858,-2.4527 -0.858,-3.926zM189.223,21.798c0,-0.884 -0.173,-1.638 -0.52,-2.262c-0.346,-0.6413 -0.814,-1.1267 -1.404,-1.456c-0.589,-0.3467 -1.222,-0.52 -1.898,-0.52c-0.676,0 -1.3,0.1647 -1.872,0.494c-0.572,0.3293 -1.04,0.8147 -1.404,1.456c-0.346,0.624 -0.52,1.3693 -0.52,2.236c0,0.8667 0.174,1.6293 0.52,2.288c0.364,0.6413 0.832,1.1353 1.404,1.482c0.59,0.3467 1.214,0.52 1.872,0.52c0.676,0 1.309,-0.1647 1.898,-0.494c0.59,-0.3467 1.058,-0.832 1.404,-1.456c0.347,-0.6413 0.52,-1.404 0.52,-2.288z"></path><path d="M18.5003,35.8876c-1.0329,0 -2.0813,-0.2312 -2.8983,-0.7092l-8.47916,-4.887c-3.45333,-2.328 -3.66917,-2.6825 -3.66917,-6.3363v-8.9108c0,-3.6538 0.20042,-4.0084 3.59209,-6.30543l8.54074,-4.93334c1.6188,-0.94041 4.1625,-0.94041 5.7813,0l8.51,4.9025c3.4533,2.32787 3.6692,2.68247 3.6692,6.33627v8.8954c0,3.6537 -0.2005,4.0083 -3.5921,6.3054l-8.5409,4.9333c-0.8325,0.478 -1.8808,0.7092 -2.9137,0.7092zM18.5003,5.42428c-0.6475,0 -1.2796,0.12334 -1.7267,0.38542l-8.47909,4.9025c-2.51292,1.6958 -2.51292,1.6958 -2.51292,4.3321v8.8954c0,2.6362 0,2.6362 2.57458,4.3783l8.41743,4.8563c0.9096,0.5241 2.5592,0.5241 3.4688,0l8.4791,-4.9025c2.4975,-1.6959 2.4975,-1.6959 2.4975,-4.3321v-8.8954c0,-2.6363 0,-2.6363 -2.5745,-4.3784l-8.4175,-4.8562c-0.4471,-0.26208 -1.0792,-0.38542 -1.7267,-0.38542z"></path><path d="M18.5,25.2812c-3.1912,0 -5.7812,-2.59 -5.7812,-5.7812c0,-3.1912 2.59,-5.7812 5.7812,-5.7812c3.1912,0 5.7812,2.59 5.7812,5.7812c0,3.1912 -2.59,5.7812 -5.7812,5.7812zM18.5,16.0312c-1.9117,0 -3.4688,1.5571 -3.4688,3.4688c0,1.9117 1.5571,3.4688 3.4688,3.4688c1.9117,0 3.4688,-1.5571 3.4688,-3.4688c0,-1.9117 -1.5571,-3.4688 -3.4688,-3.4688z"></path></g></g></svg>

<svg width="195" height="39" viewBox="0 0 195 39" fill="none" xmlns="http://www.w3.org/2000/svg">
<path d="M53.138 10.852C55.0447 10.852 56.7173 11.2247 58.156 11.97C59.612 12.7153 60.73 13.7813 61.51 15.168C62.3073 16.5373 62.706 18.132 62.706 19.952C62.706 21.772 62.3073 23.3667 61.51 24.736C60.73 26.088 59.612 27.1367 58.156 27.882C56.7173 28.6273 55.0447 29 53.138 29H46.794V10.852H53.138ZM53.008 25.906C54.9147 25.906 56.388 25.386 57.428 24.346C58.468 23.306 58.988 21.8413 58.988 19.952C58.988 18.0627 58.468 16.5893 57.428 15.532C56.388 14.4573 54.9147 13.92 53.008 13.92H50.434V25.906H53.008ZM64.7547 21.746C64.7547 20.29 65.0407 18.9987 65.6127 17.872C66.2021 16.7453 66.9907 15.8787 67.9787 15.272C68.9841 14.6653 70.1021 14.362 71.3327 14.362C72.4074 14.362 73.3434 14.5787 74.1407 15.012C74.9554 15.4453 75.6054 15.9913 76.0907 16.65V14.596H79.7567V29H76.0907V26.894C75.6227 27.57 74.9727 28.1333 74.1407 28.584C73.3261 29.0173 72.3814 29.234 71.3067 29.234C70.0934 29.234 68.9841 28.922 67.9787 28.298C66.9907 27.674 66.2021 26.7987 65.6127 25.672C65.0407 24.528 64.7547 23.2193 64.7547 21.746ZM76.0907 21.798C76.0907 20.914 75.9174 20.16 75.5707 19.536C75.2241 18.8947 74.7561 18.4093 74.1667 18.08C73.5774 17.7333 72.9447 17.56 72.2687 17.56C71.5927 17.56 70.9687 17.7247 70.3967 18.054C69.8247 18.3833 69.3567 18.8687 68.9927 19.51C68.6461 20.134 68.4727 20.8793 68.4727 21.746C68.4727 22.6127 68.6461 23.3753 68.9927 24.034C69.3567 24.6753 69.8247 25.1693 70.3967 25.516C70.9861 25.8627 71.6101 26.036 72.2687 26.036C72.9447 26.036 73.5774 25.8713 74.1667 25.542C74.7561 25.1953 75.2241 24.71 75.5707 24.086C75.9174 23.4447 76.0907 22.682 76.0907 21.798ZM89.0838 29.234C87.9051 29.234 86.8478 29.026 85.9118 28.61C84.9758 28.1767 84.2305 27.596 83.6758 26.868C83.1385 26.14 82.8438 25.334 82.7918 24.45H86.4578C86.5271 25.0047 86.7958 25.464 87.2638 25.828C87.7491 26.192 88.3471 26.374 89.0578 26.374C89.7511 26.374 90.2885 26.2353 90.6698 25.958C91.0685 25.6807 91.2678 25.3253 91.2678 24.892C91.2678 24.424 91.0251 24.0773 90.5398 23.852C90.0718 23.6093 89.3178 23.3493 88.2778 23.072C87.2031 22.812 86.3191 22.5433 85.6258 22.266C84.9498 21.9887 84.3605 21.564 83.8578 20.992C83.3725 20.42 83.1298 19.6487 83.1298 18.678C83.1298 17.8807 83.3551 17.1527 83.8058 16.494C84.2738 15.8353 84.9325 15.3153 85.7818 14.934C86.6485 14.5527 87.6625 14.362 88.8238 14.362C90.5398 14.362 91.9091 14.7953 92.9318 15.662C93.9545 16.5113 94.5178 17.664 94.6218 19.12H91.1378C91.0858 18.548 90.8431 18.0973 90.4098 17.768C89.9938 17.4213 89.4305 17.248 88.7198 17.248C88.0611 17.248 87.5498 17.3693 87.1858 17.612C86.8391 17.8547 86.6658 18.1927 86.6658 18.626C86.6658 19.1113 86.9085 19.484 87.3938 19.744C87.8791 19.9867 88.6331 20.238 89.6558 20.498C90.6958 20.758 91.5538 21.0267 92.2298 21.304C92.9058 21.5813 93.4865 22.0147 93.9718 22.604C94.4745 23.176 94.7345 23.9387 94.7518 24.892C94.7518 25.724 94.5178 26.4693 94.0498 27.128C93.5991 27.7867 92.9405 28.3067 92.0738 28.688C91.2245 29.052 90.2278 29.234 89.0838 29.234ZM106.112 14.388C107.204 14.388 108.174 14.6307 109.024 15.116C109.873 15.584 110.532 16.286 111 17.222C111.485 18.1407 111.728 19.25 111.728 20.55V29H108.088V21.044C108.088 19.9 107.802 19.0247 107.23 18.418C106.658 17.794 105.878 17.482 104.89 17.482C103.884 17.482 103.087 17.794 102.498 18.418C101.926 19.0247 101.64 19.9 101.64 21.044V29H97.9998V9.76H101.64V16.39C102.108 15.766 102.732 15.2807 103.512 14.934C104.292 14.57 105.158 14.388 106.112 14.388ZM119.089 16.702C119.557 16.0087 120.199 15.4453 121.013 15.012C121.845 14.5787 122.79 14.362 123.847 14.362C125.078 14.362 126.187 14.6653 127.175 15.272C128.181 15.8787 128.969 16.7453 129.541 17.872C130.131 18.9813 130.425 20.2727 130.425 21.746C130.425 23.2193 130.131 24.528 129.541 25.672C128.969 26.7987 128.181 27.674 127.175 28.298C126.187 28.922 125.078 29.234 123.847 29.234C122.773 29.234 121.828 29.026 121.013 28.61C120.216 28.1767 119.575 27.622 119.089 26.946V29H115.449V9.76H119.089V16.702ZM126.707 21.746C126.707 20.8793 126.525 20.134 126.161 19.51C125.815 18.8687 125.347 18.3833 124.757 18.054C124.185 17.7247 123.561 17.56 122.885 17.56C122.227 17.56 121.603 17.7333 121.013 18.08C120.441 18.4093 119.973 18.8947 119.609 19.536C119.263 20.1773 119.089 20.9313 119.089 21.798C119.089 22.6647 119.263 23.4187 119.609 24.06C119.973 24.7013 120.441 25.1953 121.013 25.542C121.603 25.8713 122.227 26.036 122.885 26.036C123.561 26.036 124.185 25.8627 124.757 25.516C125.347 25.1693 125.815 24.6753 126.161 24.034C126.525 23.3927 126.707 22.63 126.707 21.746ZM139.726 29.234C138.34 29.234 137.092 28.9307 135.982 28.324C134.873 27.7 133.998 26.8247 133.356 25.698C132.732 24.5713 132.42 23.2713 132.42 21.798C132.42 20.3247 132.741 19.0247 133.382 17.898C134.041 16.7713 134.934 15.9047 136.06 15.298C137.187 14.674 138.444 14.362 139.83 14.362C141.217 14.362 142.474 14.674 143.6 15.298C144.727 15.9047 145.611 16.7713 146.252 17.898C146.911 19.0247 147.24 20.3247 147.24 21.798C147.24 23.2713 146.902 24.5713 146.226 25.698C145.568 26.8247 144.666 27.7 143.522 28.324C142.396 28.9307 141.13 29.234 139.726 29.234ZM139.726 26.062C140.385 26.062 141 25.906 141.572 25.594C142.162 25.2647 142.63 24.7793 142.976 24.138C143.323 23.4967 143.496 22.7167 143.496 21.798C143.496 20.4287 143.132 19.38 142.404 18.652C141.694 17.9067 140.818 17.534 139.778 17.534C138.738 17.534 137.863 17.9067 137.152 18.652C136.459 19.38 136.112 20.4287 136.112 21.798C136.112 23.1673 136.45 24.2247 137.126 24.97C137.82 25.698 138.686 26.062 139.726 26.062ZM149.234 21.746C149.234 20.29 149.52 18.9987 150.092 17.872C150.682 16.7453 151.47 15.8787 152.458 15.272C153.464 14.6653 154.582 14.362 155.812 14.362C156.887 14.362 157.823 14.5787 158.62 15.012C159.435 15.4453 160.085 15.9913 160.57 16.65V14.596H164.236V29H160.57V26.894C160.102 27.57 159.452 28.1333 158.62 28.584C157.806 29.0173 156.861 29.234 155.786 29.234C154.573 29.234 153.464 28.922 152.458 28.298C151.47 27.674 150.682 26.7987 150.092 25.672C149.52 24.528 149.234 23.2193 149.234 21.746ZM160.57 21.798C160.57 20.914 160.397 20.16 160.05 19.536C159.704 18.8947 159.236 18.4093 158.646 18.08C158.057 17.7333 157.424 17.56 156.748 17.56C156.072 17.56 155.448 17.7247 154.876 18.054C154.304 18.3833 153.836 18.8687 153.472 19.51C153.126 20.134 152.952 20.8793 152.952 21.746C152.952 22.6127 153.126 23.3753 153.472 24.034C153.836 24.6753 154.304 25.1693 154.876 25.516C155.466 25.8627 156.09 26.036 156.748 26.036C157.424 26.036 158.057 25.8713 158.646 25.542C159.236 25.1953 159.704 24.71 160.05 24.086C160.397 23.4447 160.57 22.682 160.57 21.798ZM171.691 16.832C172.16 16.0693 172.766 15.4713 173.512 15.038C174.274 14.6047 175.141 14.388 176.111 14.388V18.21H175.149C174.006 18.21 173.139 18.4787 172.55 19.016C171.977 19.5533 171.691 20.4893 171.691 21.824V29H168.051V14.596H171.691V16.832ZM177.887 21.746C177.887 20.29 178.173 18.9987 178.745 17.872C179.335 16.7453 180.132 15.8787 181.137 15.272C182.143 14.6653 183.261 14.362 184.491 14.362C185.427 14.362 186.32 14.57 187.169 14.986C188.019 15.3847 188.695 15.922 189.197 16.598V9.76H192.889V29H189.197V26.868C188.747 27.5787 188.114 28.1507 187.299 28.584C186.485 29.0173 185.54 29.234 184.465 29.234C183.252 29.234 182.143 28.922 181.137 28.298C180.132 27.674 179.335 26.7987 178.745 25.672C178.173 24.528 177.887 23.2193 177.887 21.746ZM189.223 21.798C189.223 20.914 189.05 20.16 188.703 19.536C188.357 18.8947 187.889 18.4093 187.299 18.08C186.71 17.7333 186.077 17.56 185.401 17.56C184.725 17.56 184.101 17.7247 183.529 18.054C182.957 18.3833 182.489 18.8687 182.125 19.51C181.779 20.134 181.605 20.8793 181.605 21.746C181.605 22.6127 181.779 23.3753 182.125 24.034C182.489 24.6753 182.957 25.1693 183.529 25.516C184.119 25.8627 184.743 26.036 185.401 26.036C186.077 26.036 186.71 25.8713 187.299 25.542C187.889 25.1953 188.357 24.71 188.703 24.086C189.05 23.4447 189.223 22.682 189.223 21.798Z" fill="black"/>
<path d="M18.5003 35.8876C17.4674 35.8876 16.419 35.6564 15.602 35.1784L7.12284 30.2914C3.66951 27.9634 3.45367 27.6089 3.45367 23.9551V15.0443C3.45367 11.3905 3.65409 11.0359 7.04576 8.73887L15.5865 3.80553C17.2053 2.86512 19.749 2.86512 21.3678 3.80553L29.8778 8.70803C33.3311 11.0359 33.547 11.3905 33.547 15.0443V23.9397C33.547 27.5934 33.3465 27.948 29.9549 30.2451L21.414 35.1784C20.5815 35.6564 19.5332 35.8876 18.5003 35.8876ZM18.5003 5.42428C17.8528 5.42428 17.2207 5.54762 16.7736 5.8097L8.29451 10.7122C5.78159 12.408 5.78159 12.408 5.78159 15.0443V23.9397C5.78159 26.5759 5.78159 26.5759 8.35617 28.318L16.7736 33.1743C17.6832 33.6984 19.3328 33.6984 20.2424 33.1743L28.7215 28.2718C31.219 26.5759 31.219 26.5759 31.219 23.9397V15.0443C31.219 12.408 31.219 12.408 28.6445 10.6659L20.227 5.8097C19.7799 5.54762 19.1478 5.42428 18.5003 5.42428Z" fill="black"/>
<path d="M18.5 25.2812C15.3088 25.2812 12.7188 22.6912 12.7188 19.5C12.7188 16.3088 15.3088 13.7188 18.5 13.7188C21.6912 13.7188 24.2812 16.3088 24.2812 19.5C24.2812 22.6912 21.6912 25.2812 18.5 25.2812ZM18.5 16.0312C16.5883 16.0312 15.0312 17.5883 15.0312 19.5C15.0312 21.4117 16.5883 22.9688 18.5 22.9688C20.4117 22.9688 21.9688 21.4117 21.9688 19.5C21.9688 17.5883 20.4117 16.0312 18.5 16.0312Z" fill="black"/>
</svg>
